src/assets/icons/ethereum.svg

<svg viewBox="0 0 36 55" fill="none" xmlns="http://www.w3.org/2000/svg">
  <path d="M1.59106 27.8007C1.60136 27.7938 1.61165 27.7938 1.62194 27.7972C1.6631 27.7869 1.70426 27.7799 1.742 27.7627C2.20851 27.5588 2.67503 27.3515 3.14155 27.1511C4.20493 26.6915 5.27174 26.2389 6.33513 25.7793C7.23043 25.3923 8.12573 24.9984 9.02103 24.6114C10.0844 24.1519 11.1512 23.6993 12.2146 23.2397C13.1099 22.8527 14.0052 22.4588 14.9005 22.0718C15.9021 21.6399 16.9038 21.2045 17.9089 20.7795C18.1353 20.6828 18.3514 20.548 18.6018 20.51L18.6086 20.5169C18.6086 26.1352 18.6086 31.757 18.6086 37.3752C18.6086 37.4616 18.6052 37.548 18.6052 37.6309C18.1112 37.3545 17.6173 37.0815 17.1302 36.7982C14.3585 35.2019 11.5869 33.6021 8.81178 32.0057C6.47577 30.6616 4.13975 29.3175 1.80374 27.9734C1.73857 27.9354 1.68025 27.8732 1.59106 27.8767C1.59106 27.8525 1.59106 27.8283 1.59106 27.8007Z" fill="#7B86C2"/>
  <path d="M18.6086 0.905347C18.6086 0.891316 18.6086 0.880792 18.6086 0.86676C18.6226 0.86676 18.633 0.86676 18.647 0.86676C18.647 0.880792 18.647 0.891316 18.647 0.905347C18.6295 0.905347 18.6191 0.905347 18.6086 0.905347Z" fill="#8792C7"/>
  <path d="M18.6085 0.904785C18.6188 0.904785 18.6326 0.904785 18.6428 0.904785C19.0922 1.60966 19.545 2.31454 19.9909 3.01942C21.3493 5.1686 22.7043 7.31778 24.0627 9.46697C26.9647 14.0625 29.8667 18.6615 32.7721 23.257C33.6949 24.7186 34.6176 26.1801 35.5404 27.6417C35.5712 27.6901 35.6261 27.735 35.6158 27.8041C35.5849 27.8007 35.5541 27.8007 35.5266 27.7869C35.0807 27.5934 34.6348 27.3999 34.1888 27.2064C33.2078 26.7814 32.2301 26.3529 31.2491 25.9314C30.1857 25.4718 29.1189 25.0157 28.0555 24.5562C27.0745 24.1312 26.0968 23.7062 25.1158 23.2812C24.1244 22.8527 23.1331 22.4277 22.1417 21.9993C21.171 21.5812 20.2071 21.1562 19.2329 20.745C19.0305 20.6586 18.8384 20.5239 18.6051 20.5135L18.5983 20.5066C18.6017 20.4513 18.6051 20.396 18.6051 20.3407C18.6051 13.9485 18.6051 7.55274 18.6051 1.16048C18.6051 1.09828 18.6326 1.02226 18.5674 0.973891C18.5811 0.953159 18.5948 0.928972 18.6085 0.904785Z" fill="#7B86C2"/>
  <path d="M18.6086 20.5169C18.8419 20.5238 19.0306 20.6621 19.2364 20.7484C20.2106 21.1596 21.1745 21.5846 22.1453 22.0027C23.1366 22.4312 24.1279 22.8562 25.1193 23.2846C26.1004 23.7096 27.078 24.1346 28.059 24.5596C29.1224 25.0192 30.1892 25.4753 31.2526 25.9348C32.2337 26.3598 33.2113 26.7848 34.1924 27.2098C34.6383 27.4033 35.0842 27.5968 35.5302 27.7903C35.5576 27.8007 35.5885 27.8007 35.6194 27.8076C35.6399 27.894 35.5645 27.9078 35.5164 27.9354C33.7979 28.9236 32.0793 29.9084 30.3642 30.8966C29.0675 31.6429 27.7743 32.3927 26.4811 33.1391C24.3441 34.3691 22.207 35.6027 20.0699 36.8328C19.6446 37.0781 19.2192 37.3234 18.7904 37.5687C18.7356 37.5998 18.6841 37.6551 18.6086 37.6378C18.6086 37.5515 18.6121 37.4651 18.6121 37.3821C18.6086 31.757 18.6086 26.1352 18.6086 20.5169Z" fill="#606BB2"/>
  <path d="M18.6121 41.3246C19.8676 40.6025 21.1231 39.8838 22.3785 39.1616C26.7315 36.6531 31.088 34.148 35.441 31.6395C35.4822 31.6153 35.5302 31.598 35.5714 31.5807C35.5782 31.5877 35.5851 31.5911 35.5885 31.598C35.2043 32.1336 34.8201 32.6692 34.4325 33.2013C32.906 35.2917 31.3761 37.3822 29.8462 39.4726C27.4382 42.7655 25.0267 46.0584 22.6187 49.3513C21.3151 51.1307 20.0185 52.9136 18.715 54.6931C18.6944 54.7208 18.667 54.7449 18.643 54.7726C18.6292 54.7726 18.6155 54.7726 18.6052 54.7726L18.6018 54.776C18.6018 54.6966 18.6052 54.6171 18.6052 54.5376C18.6052 50.2116 18.6052 45.8856 18.6052 41.5631C18.6087 41.4836 18.6121 41.4041 18.6121 41.3246Z" fill="#7B86C2"/>
  <path d="M18.6121 41.3246C18.6087 41.4041 18.6087 41.4836 18.6087 41.563C18.6087 45.889 18.6087 50.2151 18.6087 54.5376C18.6087 54.6171 18.6052 54.6966 18.6052 54.776C18.2622 54.3165 17.9192 53.8604 17.5796 53.3974C16.578 52.0291 15.5763 50.6608 14.5747 49.289C13.3398 47.5994 12.1049 45.9098 10.87 44.2201C9.72428 42.6549 8.57857 41.0862 7.43629 39.521C6.21855 37.8555 5.0008 36.1935 3.78305 34.5281C3.07985 33.5675 2.37664 32.607 1.67344 31.6498C1.66315 31.636 1.65972 31.6222 1.646 31.5876C1.83809 31.6257 1.9753 31.7431 2.12623 31.8295C4.06777 32.9456 6.0093 34.0651 7.95083 35.1846C10.2079 36.4872 12.4651 37.7864 14.7222 39.0856C16.0154 39.8354 17.3155 40.5783 18.6121 41.3246Z" fill="#9FA7D3"/>
  <path d="M35.5713 31.581C35.5817 31.567 35.5957 31.5529 35.6096 31.574C35.6096 31.5775 35.5957 31.588 35.5887 31.5985C35.5852 31.5915 35.5783 31.5845 35.5713 31.581Z" fill="#7B86C2"/>
  <path d="M18.6052 54.776C18.6192 54.776 18.6331 54.776 18.6435 54.776C18.6331 54.8041 18.6192 54.8146 18.6052 54.776Z" fill="#8792C7"/>
  <path d="M18.5674 0.977325C18.6325 1.02915 18.6051 1.10172 18.6051 1.16391C18.6051 7.55618 18.6051 13.9519 18.6051 20.3442C18.6051 20.3995 18.6017 20.4547 18.5982 20.51C18.3478 20.548 18.1352 20.6828 17.9053 20.7795C16.9003 21.2045 15.8986 21.6399 14.897 22.0718C14.0017 22.4588 13.1064 22.8527 12.2111 23.2397C11.1477 23.6992 10.0809 24.1519 9.0175 24.6114C8.1222 24.9984 7.2269 25.3923 6.3316 25.7793C5.26822 26.2389 4.2014 26.6915 3.13802 27.1511C2.6715 27.3515 2.20498 27.5588 1.73847 27.7626C1.70073 27.7799 1.65957 27.7868 1.61841 27.7972C1.91684 27.3135 2.21184 26.8297 2.51371 26.3494C3.975 24.0344 5.43973 21.7194 6.90102 19.4078C8.35546 17.1031 9.80989 14.7984 11.2678 12.4938C12.6947 10.2306 14.1252 7.96736 15.5522 5.70415C16.4543 4.27712 17.3531 2.85354 18.2586 1.42997C18.3581 1.27448 18.4302 1.10172 18.5674 0.977325Z" fill="#9FA7D3"/>
  <path d="M13.3844 10.1926H10.9009V12.6942H13.3844V10.1926Z" fill="#9FA7D3"/>
  <path d="M12.3485 12.5594H9.86499V15.061H12.3485V12.5594Z" fill="#9FA7D3"/>
  <path d="M11.1068 14.3527H8.62329V16.8543H11.1068V14.3527Z" fill="#9FA7D3"/>
  <path d="M9.86511 16.2324H7.38159V18.734H9.86511V16.2324Z" fill="#9FA7D3"/>
  <path d="M8.83581 17.4832H6.35229V19.9848H8.83581V17.4832Z" fill="#9FA7D3"/>
  <path d="M7.59411 18.8757H5.1106V21.3773H7.59411V18.8757Z" fill="#9FA7D3"/>
  <path d="M6.69201 20.6137H4.2085V23.1153H6.69201V20.6137Z" fill="#9FA7D3"/>
  <path d="M5.45031 22.2653H2.9668V24.7669H5.45031V22.2653Z" fill="#9FA7D3"/>
  <path d="M4.55139 23.948H2.06787V26.4496H4.55139V23.948Z" fill="#9FA7D3"/>
  <path d="M3.30969 25.6549H0.826172V28.1566H3.30969V25.6549Z" fill="#9FA7D3"/>
  <path d="M4.55139 27.1131H2.06787V29.6147H4.55139V27.1131Z" fill="#7B86C2"/>
  <path d="M5.79333 25.4545H3.30981V27.9561H5.79333V25.4545Z" fill="#7B86C2"/>
  <path d="M6.88073 28.3639H4.39722V30.8655H6.88073V28.3639Z" fill="#7B86C2"/>
  <path d="M9.14123 29.4765H6.65771V31.9781H9.14123V29.4765Z" fill="#7B86C2"/>
  <path d="M11.1068 30.7273H8.62329V33.2289H11.1068V30.7273Z" fill="#7B86C2"/>
  <path d="M13.1649 31.7984H10.6814V34.3H13.1649V31.7984Z" fill="#7B86C2"/>
  <path d="M15.12 32.5966H12.6365V35.0982H15.12V32.5966Z" fill="#7B86C2"/>
  <path d="M16.7289 33.8439H14.2454V36.3456H16.7289V33.8439Z" fill="#7B86C2"/>
  <path d="M18.5675 35.1362H16.084V37.6378H18.5675V35.1362Z" fill="#7B86C2"/>
  <path d="M21.1266 39.787H18.6431V42.2886H21.1266V39.787Z" fill="#7B86C2"/>
  <path d="M23.61 38.6779H21.1265V41.1795H23.61V38.6779Z" fill="#7B86C2"/>
  <path d="M25.5277 37.6378H23.0442V40.1395H25.5277V37.6378Z" fill="#7B86C2"/>
  <path d="M27.4486 36.7671H24.9651V39.2687H27.4486V36.7671Z" fill="#7B86C2"/>
  <path d="M29.1327 35.6545H26.6492V38.1561H29.1327V35.6545Z" fill="#7B86C2"/>
  <path d="M31.7533 34.2655H29.2698V36.7671H31.7533V34.2655Z" fill="#7B86C2"/>
  <path d="M30.5634 35.1362H28.0798V37.6378H30.5634V35.1362Z" fill="#7B86C2"/>
  <path d="M32.6693 35.1293H30.1858V37.6309H32.6693V35.1293Z" fill="#7B86C2"/>
  <path d="M31.4276 36.5356H28.9441V39.0372H31.4276V36.5356Z" fill="#7B86C2"/>
  <path d="M30.5116 38.6779H28.0281V41.1795H30.5116V38.6779Z" fill="#7B86C2"/>
  <path d="M28.944 40.4263H26.4604V42.9279H28.944V40.4263Z" fill="#7B86C2"/>
  <path d="M27.5377 41.9293H25.0542V44.4309H27.5377V41.9293Z" fill="#7B86C2"/>
  <path d="M26.4606 43.7053H23.9771V46.2069H26.4606V43.7053Z" fill="#7B86C2"/>
  <path d="M25.5277 44.9561H23.0442V47.4577H25.5277V44.9561Z" fill="#7B86C2"/>
  <path d="M24.1488 46.2069H21.6653V48.7086H24.1488V46.2069Z" fill="#7B86C2"/>
  <path d="M23.0441 47.6512H20.5605V50.1529H23.0441V47.6512Z" fill="#7B86C2"/>
  <path d="M21.9703 49.6968H19.4868V52.1984H21.9703V49.6968Z" fill="#7B86C2"/>
  <path d="M21.0511 52.1984H18.5676V54.7H21.0511V52.1984Z" fill="#7B86C2"/>
  <path d="M18.6566 52.1984H16.1731V54.7H18.6566V52.1984Z" fill="#9FA7D3"/>
  <path d="M33.6779 33.2151H31.1943V35.7167H33.6779V33.2151Z" fill="#7B86C2"/>
  <path d="M35.6195 31.6222H33.136V34.1238H35.6195V31.6222Z" fill="#7B86C2"/>
  <path d="M8.12243 24.6114H5.63892V27.1131H8.12243V24.6114Z" fill="#7B86C2"/>
  <path d="M10.1256 23.5161H7.64209V26.0177H10.1256V23.5161Z" fill="#7B86C2"/>
  <path d="M12.3485 22.7007H9.86499V25.2023H12.3485V22.7007Z" fill="#7B86C2"/>
  <path d="M14.8321 21.5984H12.3486V24.1001H14.8321V21.5984Z" fill="#7B86C2"/>
  <path d="M17.0514 20.7554H14.5679V23.257H17.0514V20.7554Z" fill="#7B86C2"/>
  <path d="M18.818 19.9848H16.3345V22.4864H18.818V19.9848Z" fill="#7B86C2"/>
  <path d="M21.0511 20.1265H18.5676V22.6281H21.0511V20.1265Z" fill="#606BB2"/>
  <path d="M23.0441 21.2356H20.5605V23.7372H23.0441V21.2356Z" fill="#606BB2"/>
  <path d="M25.1981 22.2653H22.7146V24.7669H25.1981V22.2653Z" fill="#606BB2"/>
  <path d="M27.4486 23.1153H24.9651V25.6169H27.4486V23.1153Z" fill="#606BB2"/>
  <path d="M29.764 23.948H27.2805V26.4496H29.764V23.948Z" fill="#606BB2"/>
  <path d="M32.0485 24.9224H29.5649V27.424H32.0485V24.9224Z" fill="#606BB2"/>
  <path d="M35.6195 24.6114H33.136V27.1131H35.6195V24.6114Z" fill="#7B86C2"/>
  <path d="M33.911 22.2653H31.4275V24.7669H33.911V22.2653Z" fill="#7B86C2"/>
  <path d="M32.6693 20.2301H30.1858V22.7318H32.6693V20.2301Z" fill="#7B86C2"/>
  <path d="M31.4276 18.5129H28.9441V21.0145H31.4276V18.5129Z" fill="#7B86C2"/>
  <path d="M29.932 16.8543H27.4485V19.3559H29.932V16.8543Z" fill="#7B86C2"/>
  <path d="M28.944 14.9816H26.4604V17.4832H28.944V14.9816Z" fill="#7B86C2"/>
  <path d="M27.7023 13.3299H25.2188V15.8316H27.7023V13.3299Z" fill="#7B86C2"/>
  <path d="M26.4606 11.8511H23.9771V14.3527H26.4606V11.8511Z" fill="#7B86C2"/>
  <path d="M25.7198 10.3619H23.2363V12.8635H25.7198V10.3619Z" fill="#7B86C2"/>
  <path d="M24.6256 8.42345H22.1421V10.9251H24.6256V8.42345Z" fill="#7B86C2"/>
  <path d="M23.5348 6.60945H21.0513V9.11107H23.5348V6.60945Z" fill="#7B86C2"/>
  <path d="M22.142 4.89216H19.6584V7.39378H22.142V4.89216Z" fill="#7B86C2"/>
  <path d="M21.4044 3.4202H18.9209V5.92182H21.4044V3.4202Z" fill="#7B86C2"/>
  <path d="M21.0956 0.942787H18.6121V3.44441H21.0956V0.942787Z" fill="#7B86C2"/>
  <path d="M36.0001 27.1131H33.5166V29.6147H36.0001V27.1131Z" fill="#606BB2"/>
  <path d="M33.5167 28.6748H31.0332V31.1765H33.5167V28.6748Z" fill="#606BB2"/>
  <path d="M31.4276 29.6147H28.9441V32.1163H31.4276V29.6147Z" fill="#606BB2"/>
  <path d="M29.5753 30.8655H27.0918V33.3671H29.5753V30.8655Z" fill="#606BB2"/>
  <path d="M27.4486 31.9643H24.9651V34.4659H27.4486V31.9643Z" fill="#606BB2"/>
  <path d="M25.5277 32.873H23.0442V35.3746H25.5277V32.873Z" fill="#606BB2"/>
  <path d="M23.0441 34.2655H20.5605V36.7671H23.0441V34.2655Z" fill="#606BB2"/>
  <path d="M20.8898 35.1362H18.4062V37.6378H20.8898V35.1362Z" fill="#606BB2"/>
  <path d="M14.8321 8.42345H12.3486V10.9251H14.8321V8.42345Z" fill="#9FA7D3"/>
  <path d="M16.3104 5.92184H13.8269V8.42346H16.3104V5.92184Z" fill="#9FA7D3"/>
  <path d="M17.4012 3.4202H14.9177V5.92182H17.4012V3.4202Z" fill="#9FA7D3"/>
  <path d="M18.8385 0.942787H16.355V3.44441H18.8385V0.942787Z" fill="#9FA7D3"/>
  <path d="M34.2369 25.8623H31.7534V28.3639H34.2369V25.8623Z" fill="#606BB2"/>
  <path d="M16.3575 42.2915L18.8411 42.2915L18.8411 39.7899L16.3575 39.7899L16.3575 42.2915Z" fill="#9FA7D3"/>
  <path d="M13.8746 41.1769L16.3582 41.1769L16.3582 38.6753L13.8746 38.6753L13.8746 41.1769Z" fill="#9FA7D3"/>
  <path d="M11.9554 40.1371L14.439 40.1371L14.439 37.6355L11.9554 37.6355L11.9554 40.1371Z" fill="#9FA7D3"/>
  <path d="M10.0348 39.2657L12.5183 39.2657L12.5183 36.7641L10.0348 36.7641L10.0348 39.2657Z" fill="#9FA7D3"/>
  <path d="M8.35267 38.1569L10.8362 38.1569L10.8362 35.6552L8.35267 35.6552L8.35267 38.1569Z" fill="#9FA7D3"/>
  <path d="M5.73206 36.7644L8.21558 36.7644L8.21558 34.2628L5.73206 34.2628L5.73206 36.7644Z" fill="#9FA7D3"/>
  <path d="M6.92005 37.6358L9.40356 37.6358L9.40356 35.1342L6.92005 35.1342L6.92005 37.6358Z" fill="#9FA7D3"/>
  <path d="M4.81653 37.6342L7.30005 37.6342L7.30005 35.1326L4.81653 35.1326L4.81653 37.6342Z" fill="#9FA7D3"/>
  <path d="M6.05823 39.0378L8.54175 39.0378L8.54175 36.5362L6.05823 36.5362L6.05823 39.0378Z" fill="#9FA7D3"/>
  <path d="M6.974 41.1769L9.45752 41.1769L9.45752 38.6753L6.974 38.6753L6.974 41.1769Z" fill="#9FA7D3"/>
  <path d="M8.54139 42.9273L11.0249 42.9273L11.0249 40.4257L8.54139 40.4257L8.54139 42.9273Z" fill="#9FA7D3"/>
  <path d="M9.9469 44.4282L12.4304 44.4282L12.4304 41.9266L9.9469 41.9266L9.9469 44.4282Z" fill="#9FA7D3"/>
  <path d="M11.0245 46.2065L13.5081 46.2065L13.5081 43.7049L11.0245 43.7049L11.0245 46.2065Z" fill="#9FA7D3"/>
  <path d="M11.9554 47.4572L14.439 47.4572L14.439 44.9555L11.9554 44.9555L11.9554 47.4572Z" fill="#9FA7D3"/>
  <path d="M13.3331 48.7078L15.8167 48.7078L15.8167 46.2062L13.3331 46.2062L13.3331 48.7078Z" fill="#9FA7D3"/>
  <path d="M14.0302 50.4231L16.5137 50.4231L16.5137 47.9215L14.0302 47.9215L14.0302 50.4231Z" fill="#9FA7D3"/>
  <path d="M15.2719 52.1992L17.7554 52.1992L17.7554 49.6976L15.2719 49.6976L15.2719 52.1992Z" fill="#9FA7D3"/>
  <path d="M3.80823 35.7182L6.29175 35.7182L6.29175 33.2166L3.80823 33.2166L3.80823 35.7182Z" fill="#9FA7D3"/>
  <path d="M1.86438 34.1222L4.3479 34.1222L4.3479 31.6206L1.86438 31.6206L1.86438 34.1222Z" fill="#9FA7D3"/>
</svg>

<svg viewBox="0 0 36 55" fill="none" xmlns="http://www.w3.org/2000/svg"><path d="M1.591 27.8a.033.033 0 0 1 .03-.003c.042-.01.083-.017.121-.034.467-.204.933-.412 1.4-.612 1.063-.46 2.13-.912 3.193-1.372.895-.387 1.79-.78 2.686-1.168 1.063-.46 2.13-.912 3.194-1.371.895-.387 1.79-.781 2.685-1.168 1.002-.432 2.004-.867 3.009-1.293.226-.096.442-.231.693-.269l.007.007v16.858c0 .087-.004.173-.004.256-.494-.276-.988-.55-1.475-.833-2.771-1.596-5.543-3.196-8.318-4.792l-7.008-4.033c-.065-.038-.124-.1-.213-.096V27.8z" fill="#7B86C2"/><path d="M18.609.905V.867h.038v.038h-.038z" fill="#8792C7"/><path d="M18.608.905h.035c.45.705.902 1.41 1.348 2.114 1.358 2.15 2.713 4.299 4.072 6.448 2.902 4.595 5.804 9.194 8.71 13.79l2.767 4.385c.031.048.086.093.076.162-.031-.003-.062-.003-.09-.017l-1.337-.58c-.981-.426-1.959-.854-2.94-1.276-1.063-.46-2.13-.915-3.194-1.375l-2.94-1.275c-.99-.428-1.982-.853-2.973-1.282-.971-.418-1.935-.843-2.91-1.254-.201-.086-.394-.221-.627-.232l-.007-.006c.004-.056.007-.111.007-.166V1.16c0-.063.028-.139-.038-.187a1.22 1.22 0 0 0 .041-.07z" fill="#7B86C2"/><path d="M18.609 20.517c.233.007.422.145.627.231.975.412 1.938.837 2.91 1.255.99.428 1.982.853 2.973 1.282l2.94 1.275c1.063.46 2.13.915 3.194 1.375l2.94 1.275 1.337.58c.028.01.059.01.09.018.02.086-.055.1-.104.127-1.718.989-3.437 1.973-5.152 2.962-1.297.746-2.59 1.496-3.883 2.242-2.137 1.23-4.274 2.464-6.411 3.694-.425.245-.85.49-1.28.736-.054.03-.106.086-.181.069 0-.087.003-.173.003-.256-.003-5.625-.003-11.247-.003-16.865z" fill="#606BB2"/><path d="M18.612 41.325c1.256-.723 2.511-1.441 3.767-2.163 4.352-2.509 8.709-5.014 13.062-7.522.041-.025.09-.042.13-.06.007.008.014.011.018.018a271.04 271.04 0 0 1-1.157 1.603 7331.66 7331.66 0 0 1-4.586 6.272c-2.408 3.293-4.82 6.585-7.227 9.878-1.304 1.78-2.6 3.563-3.904 5.342-.02.028-.048.052-.072.08h-.038l-.003.003c0-.08.003-.159.003-.238V41.563c.004-.08.007-.159.007-.238z" fill="#7B86C2"/><path d="M18.612 41.325c-.003.08-.003.159-.003.238v12.975c0 .08-.004.159-.004.238-.343-.46-.686-.916-1.025-1.379A222677.663 222677.663 0 0 1 7.437 39.521l-3.654-4.993c-.703-.96-1.406-1.921-2.11-2.878-.01-.014-.013-.028-.027-.062.192.038.33.155.48.241 1.942 1.117 3.883 2.236 5.825 3.356 2.257 1.302 4.514 2.601 6.771 3.9 1.293.75 2.594 1.493 3.89 2.24z" fill="#9FA7D3"/><path d="M35.571 31.581c.01-.014.025-.028.039-.007 0 .003-.014.014-.021.024a.042.042 0 0 0-.018-.017z" fill="#7B86C2"/><path d="M18.605 54.776h.038c-.01.028-.024.039-.038 0z" fill="#8792C7"/><path d="M18.567.977c.066.052.038.125.038.187v19.18c0 .055-.003.11-.007.166-.25.038-.463.173-.693.27-1.005.424-2.006.86-3.008 1.292-.895.387-1.79.78-2.686 1.168-1.063.46-2.13.912-3.194 1.371-.895.387-1.79.781-2.685 1.168-1.064.46-2.13.913-3.194 1.372-.466.2-.933.408-1.4.612-.037.017-.078.024-.12.034.299-.483.594-.967.896-1.448 1.461-2.315 2.926-4.63 4.387-6.941 1.454-2.305 2.909-4.61 4.367-6.914l4.284-6.79c.902-1.427 1.801-2.85 2.707-4.274.1-.156.171-.328.308-.453z" fill="#9FA7D3"/><path d="M13.384 10.193h-2.483v2.501h2.483v-2.501z" fill="#9FA7D3"/><path d="M12.348 12.56H9.865v2.501h2.483v-2.502z" fill="#9FA7D3"/><path d="M11.107 14.353H8.623v2.501h2.484v-2.501z" fill="#9FA7D3"/><path d="M9.865 16.232H7.382v2.502h2.483v-2.502z" fill="#9FA7D3"/><path d="M8.836 17.483H6.352v2.502h2.484v-2.502z" fill="#9FA7D3"/><path d="M7.594 18.876H5.111v2.501h2.483v-2.501z" fill="#9FA7D3"/><path d="M6.692 20.614H4.208v2.501h2.484v-2.501z" fill="#9FA7D3"/><path d="M5.45 22.265H2.967v2.502H5.45v-2.502z" fill="#9FA7D3"/><path d="M4.551 23.948H2.068v2.502H4.55v-2.502z" fill="#9FA7D3"/><path d="M3.31 25.655H.826v2.502H3.31v-2.502z" fill="#9FA7D3"/><path d="M4.551 27.113H2.068v2.502H4.55v-2.502z" fill="#7B86C2"/><path d="M5.793 25.454H3.31v2.502h2.483v-2.502zM6.88 28.364H4.398v2.502h2.484v-2.502z" fill="#7B86C2"/><path d="M9.141 29.477H6.658v2.501H9.14v-2.502z" fill="#7B86C2"/><path d="M11.107 30.727H8.623v2.502h2.484v-2.502z" fill="#7B86C2"/><path d="M13.165 31.798H10.68V34.3h2.484v-2.502z" fill="#7B86C2"/><path d="M15.12 32.597h-2.483v2.501h2.483v-2.501z" fill="#7B86C2"/><path d="M16.729 33.844h-2.484v2.502h2.484v-2.502z" fill="#7B86C2"/><path d="M18.567 35.136h-2.483v2.502h2.483v-2.502zM21.127 39.787h-2.484v2.502h2.484v-2.502z" fill="#7B86C2"/><path d="M23.61 38.678h-2.483v2.502h2.483v-2.502z" fill="#7B86C2"/><path d="M25.528 37.638h-2.484v2.502h2.484v-2.502z" fill="#7B86C2"/><path d="M27.449 36.767h-2.484v2.502h2.484v-2.502z" fill="#7B86C2"/><path d="M29.133 35.654h-2.484v2.502h2.484v-2.502zM31.753 34.266H29.27v2.501h2.483v-2.502z" fill="#7B86C2"/><path d="M30.563 35.136H28.08v2.502h2.483v-2.502z" fill="#7B86C2"/><path d="M32.67 35.13h-2.484v2.5h2.483v-2.5z" fill="#7B86C2"/><path d="M31.428 36.536h-2.484v2.501h2.484v-2.501z" fill="#7B86C2"/><path d="M30.512 38.678h-2.484v2.502h2.484v-2.502z" fill="#7B86C2"/><path d="M28.944 40.426H26.46v2.502h2.484v-2.502z" fill="#7B86C2"/><path d="M27.538 41.93h-2.484v2.5h2.484v-2.5z" fill="#7B86C2"/><path d="M26.46 43.705h-2.483v2.502h2.484v-2.502z" fill="#7B86C2"/><path d="M25.528 44.956h-2.484v2.502h2.484v-2.502z" fill="#7B86C2"/><path d="M24.149 46.207h-2.484v2.502h2.484v-2.502z" fill="#7B86C2"/><path d="M23.044 47.651h-2.483v2.502h2.483V47.65z" fill="#7B86C2"/><path d="M21.97 49.697h-2.483v2.501h2.483v-2.501zM21.051 52.198h-2.483V54.7h2.483v-2.502z" fill="#7B86C2"/><path d="M18.657 52.198h-2.484V54.7h2.484v-2.502z" fill="#9FA7D3"/><path d="M33.678 33.215h-2.484v2.502h2.484v-2.502z" fill="#7B86C2"/><path d="M35.62 31.622h-2.484v2.502h2.483v-2.502zM8.122 24.611H5.64v2.502h2.483v-2.502z" fill="#7B86C2"/><path d="M10.126 23.516H7.642v2.502h2.484v-2.502z" fill="#7B86C2"/><path d="M12.348 22.7H9.865v2.502h2.483v-2.501zM14.832 21.598H12.35V24.1h2.483v-2.502z" fill="#7B86C2"/><path d="M17.051 20.755h-2.483v2.502h2.483v-2.502z" fill="#7B86C2"/><path d="M18.818 19.985h-2.484v2.501h2.484v-2.501z" fill="#7B86C2"/><path d="M21.051 20.127h-2.483v2.501h2.483v-2.502z" fill="#606BB2"/><path d="M23.044 21.236h-2.483v2.501h2.483v-2.501z" fill="#606BB2"/><path d="M25.198 22.265h-2.483v2.502h2.483v-2.502z" fill="#606BB2"/><path d="M27.449 23.115h-2.484v2.502h2.484v-2.502z" fill="#606BB2"/><path d="M29.764 23.948h-2.483v2.502h2.483v-2.502z" fill="#606BB2"/><path d="M32.048 24.922h-2.483v2.502h2.483v-2.502z" fill="#606BB2"/><path d="M35.62 24.611h-2.484v2.502h2.483v-2.502z" fill="#7B86C2"/><path d="M33.911 22.265h-2.484v2.502h2.484v-2.502z" fill="#7B86C2"/><path d="M32.67 20.23h-2.484v2.502h2.483V20.23z" fill="#7B86C2"/><path d="M31.428 18.513h-2.484v2.502h2.484v-2.502z" fill="#7B86C2"/><path d="M29.932 16.854h-2.483v2.502h2.483v-2.502z" fill="#7B86C2"/><path d="M28.944 14.982H26.46v2.501h2.484v-2.501z" fill="#7B86C2"/><path d="M27.702 13.33H25.22v2.502h2.483V13.33z" fill="#7B86C2"/><path d="M26.46 11.851h-2.483v2.502h2.484V11.85z" fill="#7B86C2"/><path d="M25.72 10.362h-2.484v2.502h2.484v-2.502z" fill="#7B86C2"/><path d="M24.626 8.423h-2.484v2.502h2.484V8.423z" fill="#7B86C2"/><path d="M23.535 6.61H21.05V9.11h2.484V6.61z" fill="#7B86C2"/><path d="M22.142 4.892h-2.484v2.502h2.484V4.892z" fill="#7B86C2"/><path d="M21.404 3.42h-2.483v2.502h2.483V3.42z" fill="#7B86C2"/><path d="M21.096.943h-2.484v2.501h2.484V.943z" fill="#7B86C2"/><path d="M36 27.113h-2.483v2.502H36v-2.502zM33.517 28.675h-2.484v2.502h2.484v-2.502z" fill="#606BB2"/><path d="M31.428 29.615h-2.484v2.501h2.484v-2.501z" fill="#606BB2"/><path d="M29.575 30.866h-2.483v2.501h2.483v-2.501z" fill="#606BB2"/><path d="M27.449 31.964h-2.484v2.502h2.484v-2.502z" fill="#606BB2"/><path d="M25.528 32.873h-2.484v2.502h2.484v-2.502z" fill="#606BB2"/><path d="M23.044 34.266h-2.483v2.501h2.483v-2.502z" fill="#606BB2"/><path d="M20.89 35.136h-2.484v2.502h2.484v-2.502z" fill="#606BB2"/><path d="M14.832 8.423H12.35v2.502h2.483V8.423zM16.31 5.922h-2.483v2.501h2.483V5.922zM17.401 3.42h-2.483v2.502H17.4V3.42z" fill="#9FA7D3"/><path d="M18.838.943h-2.483v2.501h2.483V.943z" fill="#9FA7D3"/><path d="M34.237 25.862h-2.484v2.502h2.484v-2.502z" fill="#606BB2"/><path d="M16.358 42.291h2.483V39.79h-2.483v2.502zM13.875 41.177h2.483v-2.502h-2.483v2.502z" fill="#9FA7D3"/><path d="M11.955 40.137h2.484v-2.502h-2.484v2.502z" fill="#9FA7D3"/><path d="M10.035 39.266h2.483v-2.502h-2.483v2.502z" fill="#9FA7D3"/><path d="M8.353 38.157h2.483v-2.502H8.353v2.502zM5.732 36.764h2.484v-2.501H5.732v2.501z" fill="#9FA7D3"/><path d="M6.92 37.636h2.484v-2.502H6.92v2.502z" fill="#9FA7D3"/><path d="M4.817 37.634H7.3v-2.501H4.817v2.501z" fill="#9FA7D3"/><path d="M6.058 39.038h2.484v-2.502H6.058v2.502z" fill="#9FA7D3"/><path d="M6.974 41.177h2.484v-2.502H6.974v2.502z" fill="#9FA7D3"/><path d="M8.541 42.927h2.484v-2.501H8.54v2.501z" fill="#9FA7D3"/><path d="M9.947 44.428h2.483v-2.501H9.947v2.501z" fill="#9FA7D3"/><path d="M11.024 46.206h2.484v-2.501h-2.483v2.502z" fill="#9FA7D3"/><path d="M11.955 47.457h2.484v-2.502h-2.484v2.502z" fill="#9FA7D3"/><path d="M13.333 48.708h2.484v-2.502h-2.484v2.502z" fill="#9FA7D3"/><path d="M14.03 50.423h2.484v-2.502H14.03v2.502z" fill="#9FA7D3"/><path d="M15.272 52.2h2.483v-2.502h-2.483v2.501zM3.808 35.718h2.484v-2.501H3.808v2.501z" fill="#9FA7D3"/><path d="M1.864 34.122h2.484v-2.501H1.864v2.501z" fill="#9FA7D3"/></svg>
